img/about/skill_css.svg

<svg height="40" viewBox="0 0 36 40" width="36" xmlns="http://www.w3.org/2000/svg"><g fill="none" fill-rule="evenodd"><g fill-rule="nonzero"><path d="m0 .04742268c11.7443299-.00119041 23.4876289-.00206186 35.2319588 0-.6463918 7.30412371-1.2824743 14.60824742-1.9556701 21.91030932-.4 4.6670103-.8123712 9.3340206-1.2474227 13.9979381-2.5061856.6639175-4.9876289 1.4206186-7.4927835 2.0876289-2.301031.6752577-4.6206186 1.2865979-6.9226804 1.956701h-.0680413c-2.1907216-.6515464-4.4030928-1.2247423-6.5938144-1.8762887-2.58556702-.6969072-5.14845362-1.4742268-7.73505155-2.1680412-.33711341-3.4958763-.64123712-6.9938144-.94123712-10.4917526-.56597938-6.4628866-1.1814433-12.9216495-1.72577319-19.38556698-.1886598-1.94536083-.32371134-3.89690722-.54948454-5.83814433zm17.671134 2.8814433c-.0247422 1.40309278.0185567 2.80721649-.0247422 4.20927835-4.028866-.01443299-8.05876293-.00309278-12.08762891.00103093.06907216 1.36185567.25154639 2.71443299.43917525 4.06494844 3.74845361.1391753 7.50206186-.0051546 11.25051546.1072165-3.2793814 1.471134-6.5989691 2.856701-9.8927835 4.2969072-.28247422.1257732-.58453608.2206186-.8371134.4041237.02783505 1.4958763.26907217 2.9835052.37525773 4.4762887 1.99793815-.0072165 3.99484537-.0391753 5.99278347-.042268 1.601031-.0082475 3.2030928.0237113 4.8041237-.0113403-.0762886 2.4597939.0237114 4.9226805-.0515463 7.3824743-1.0773196-.1597938-2.1412372-.4-3.214433-.5907217-.8463918-.1845361-1.7134021-.2804123-2.5474227-.5226804-.1185567-1.1804124-.2010309-2.3649484-.3061856-3.5463917-.2412371-.0742268-.4969072-.0670104-.7463917-.0711341-1.21030931.0072165-2.42164952-.0041237-3.63298972.014433.1185567 2.271134.32268041 4.5391753.67010309 6.7886598 1.19381443.3113402 2.38969073.6164949 3.58144333.9412371 1.8257732.4969073 3.6742268.9103093 5.5030928 1.3989691.2175257.0463918.4371134.1268041.6628866.1082474.1216494 1.4938145.027835 2.9969072.0505154 4.4948454.4216495-.0680412.8360825-.172165 1.243299-.2979382 3.4618557-.9402061 6.9195876-1.8979381 10.3793814-2.8474226.172165-1.3608248.2525773-2.7309279.3886598-4.0948454.3597938-4.1463917.7226804-8.2927835 1.1-12.4381443.4422681-4.7422681.8247423-9.48969075 1.2701031-14.23195879-4.7907216.00412371-9.5804124-.00927835-14.3701031.00618557z" fill="#0170ba"/><g fill="#29a9df" transform="translate(17.525773 2.886598)"><path d="m.14536083.04226804c4.78969072-.01546392 9.57938144-.00206185 14.37010307-.00618557-.4453608 4.74226805-.827835 9.48969073-1.2701031 14.23195873-.3773196 4.1453609-.7402062 8.2917526-1.1 12.4381444-.1360824 1.3639175-.2164948 2.7340206-.3886598 4.0948453-3.45979378.9494846-6.91752574 1.9072165-10.37938141 2.8474227-.4072165.1257732-.82164949.2298969-1.24329897.2979382-.02268041-1.4979382.07113402-3.001031-.05051547-4.4948454.03092784-.0061856.09381444-.0185567.12474227-.0247423 3.21958763-.8082474 6.41752578-1.6979381 9.62989691-2.5350515.40618557-4.5567011.85670107-9.1113402 1.14226807-13.6773196-2.73195879.014433-5.46494848.0061856-8.19690725.0175258-.39793814.0020618-.79587628 0-1.19175257-.028866 1.47010309-.756701 3.01649484-1.356701 4.52577319-2.0319588 1.44845361-.656701 2.91443299-1.27216493 4.36804123-1.91649482.2804124-.12886598.5793815-.23608248.8257732-.42783506.0969072-.3556701.0917526-.72783505.1298969-1.09175257.0835052-1.15463918.2319588-2.30309279.2876289-3.45876289-3.86907219-.03092784-7.73814435-.00412371-11.60824744-.02474227.04329897-1.40206185 0-2.80618557.02474227-4.20927835z"/><path d="m.16494845 17.5484536c1.86804124-.0319588 3.73711341.0185567 5.60618557.0061856-.10412371 1.9103093-.2628866 3.8175257-.36185567 5.727835-1.14536082.3742268-2.30824742.6907217-3.4628866 1.0371134-.61546391.1876289-1.24742268.3360825-1.83298969.6113402.07525773-2.4597938-.02474227-4.9226804.05154639-7.3824742z"/></g><g fill="#cfcfcf" transform="translate(5.463918 7.113402)"><path d="m.09484536.0257732c4.02886598-.00412372 8.05876289-.01546392 12.08762884-.00103093.0525773 4.43298969-.013402 8.86597938.0443299 13.29690723-1.6010309.0350515-3.20309276.0030928-4.80412369.0113402-1.99793814.0030928-3.99484536.0350515-5.9927835.042268-.10618557-1.4927835-.34742268-2.9804123-.37525773-4.47628863.25257731-.18350515.55463917-.27835051.8371134-.40412371 3.29381443-1.44020618 6.61340206-2.8257732 9.89278352-4.29690722-3.74845363-.11237113-7.50206187.03195877-11.25051548-.10721649-.18762887-1.35051546-.37010309-2.70309278-.43917526-4.06494845z"/><path d="m1.72783505 15.9876289c1.21134021-.0185567 2.42268041-.0072165 3.63298969-.014433.24948454.0041237.50515464-.0030928.74639175.071134.10515464 1.1814433.18762887 2.3659794.30618557 3.5463917.83402062.2422681 1.70103093.3381444 2.54742268.5226805 1.07319586.1907216 2.13711336.4309278 3.21443296.5907216.1030928 1.4969072-.0773196 3.0041237.0948454 4.4958763-.0309278.0061856-.0938144.0185567-.1247423.0247423-.2257732.0185567-.4453608-.0618557-.6628866-.1082475-1.82886595-.4886597-3.67731956-.9020618-5.50309276-1.398969-1.19175257-.3247423-2.38762886-.6298969-3.5814433-.9412371-.34742268-2.2494846-.55154639-4.5175258-.67010309-6.7886598z"/></g><path d="m.01752577.02474227c3.8701031.02061855 7.73917526-.00618557 11.60824743.02474227-.0556701 1.1556701-.2041237 2.30412371-.2876289 3.45876288-.0381443.36391753-.0329897.73608248-.1298969 1.09175258-.2463917.19175258-.5453608.29896907-.8257732.42783505-1.45360822.6443299-2.9195876 1.25979382-4.36804121 1.91649485-1.50927835.67525773-3.0556701 1.27525773-4.5257732 2.03195876.39587629.02886598.79381444.03092783 1.19175258.02886598 2.73195876-.01134021 5.46494845-.00309278 8.19690723-.01752577-.285567 4.56597933-.7360825 9.12061853-1.14226805 13.67731963-3.21237114.8371134-6.41030928 1.7268041-9.62989691 2.5350515-.17216495-1.4917526.00824742-2.9989691-.09484536-4.4958763.58556701-.2752577 1.21752577-.4237113 1.83298969-.6113402 1.15463917-.3463917 2.31752577-.6628866 3.4628866-1.0371134.09896907-1.9103093.25773196-3.8175258.36185567-5.727835-1.86907217.0123711-3.73814433-.0381444-5.60618557-.0061856-.05773196-4.43092785.00824742-8.86391754-.0443299-13.29690723z" fill="#fff" transform="translate(17.628866 7.113402)"/></g><path d="m-2 0h40v40h-40z"/></g></svg>

<?xml version="1.0" encoding="UTF-8"?>
<svg width="36px" height="40px" viewBox="0 0 36 40" version="1.1" xmlns="http://www.w3.org/2000/svg" xmlns:xlink="http://www.w3.org/1999/xlink">
    <!-- Generator: Sketch 63.1 (92452) - https://sketch.com -->
    <title>skill_css</title>
    <desc>Created with Sketch.</desc>
    <g id="Portfolio" stroke="none" stroke-width="1" fill="none" fill-rule="evenodd">
        <g id="202003" transform="translate(-467.000000, -3121.000000)">
            <g id="skill_css" transform="translate(465.000000, 3121.000000)">
                <g id="Group" transform="translate(2.000000, 0.000000)" fill-rule="nonzero">
                    <g id="#0170baff" fill="#0170BA">
                        <path d="M0,0.0474226804 C11.7443299,0.0462322675 23.4876289,0.0453608247 35.2319588,0.0474226804 C34.585567,7.35154639 33.9494845,14.6556701 33.2762887,21.957732 C32.8762887,26.6247423 32.4639175,31.2917526 32.028866,35.9556701 C29.5226804,36.6195876 27.0412371,37.3762887 24.5360825,38.043299 C22.2350515,38.7185567 19.9154639,39.3298969 17.6134021,40 L17.5453608,40 C15.3546392,39.3484536 13.142268,38.7752577 10.9515464,38.1237113 C8.36597938,37.4268041 5.80309278,36.6494845 3.21649485,35.9556701 C2.87938144,32.4597938 2.57525773,28.9618557 2.27525773,25.4639175 C1.70927835,19.0010309 1.09381443,12.542268 0.549484536,6.07835052 C0.360824742,4.13298969 0.225773196,2.1814433 0,0.240206186 L0,0.0474226804 M17.671134,2.92886598 C17.6463918,4.33195876 17.6896907,5.73608247 17.6463918,7.13814433 C13.6175258,7.12371134 9.58762887,7.13505155 5.55876289,7.13917526 C5.62783505,8.50103093 5.81030928,9.85360825 5.99793814,11.2041237 C9.74639175,11.343299 13.5,11.1989691 17.2484536,11.3113402 C13.9690722,12.7824742 10.6494845,14.1680412 7.3556701,15.6082474 C7.07319588,15.7340206 6.77113402,15.828866 6.5185567,16.0123711 C6.54639175,17.5082474 6.78762887,18.9958763 6.89381443,20.4886598 C8.89175258,20.4814433 10.8886598,20.4494845 12.8865979,20.4463918 C14.4876289,20.4381443 16.0896907,20.4701031 17.6907216,20.4350515 C17.614433,22.8948454 17.714433,25.357732 17.6391753,27.8175258 C16.5618557,27.657732 15.4979381,27.4175258 14.4247423,27.2268041 C13.5783505,27.042268 12.7113402,26.9463918 11.8773196,26.7041237 C11.7587629,25.5237113 11.6762887,24.3391753 11.571134,23.157732 C11.3298969,23.0835052 11.0742268,23.0907216 10.8247423,23.0865979 C9.61443299,23.0938144 8.40309278,23.0824742 7.19175258,23.1010309 C7.31030928,25.3721649 7.51443299,27.6402062 7.86185567,29.8896907 C9.0556701,30.2010309 10.2515464,30.5061856 11.443299,30.8309278 C13.2690722,31.3278351 15.1175258,31.7412371 16.9463918,32.2298969 C17.1639175,32.2762887 17.3835052,32.356701 17.6092784,32.3381443 C17.7309278,33.8319588 17.6371134,35.3350515 17.6597938,36.8329897 C18.0814433,36.7649485 18.4958763,36.6608247 18.9030928,36.5350515 C22.3649485,35.5948454 25.8226804,34.6371134 29.2824742,33.6876289 C29.4546392,32.3268041 29.5350515,30.956701 29.671134,29.5927835 C30.0309278,25.4463918 30.3938144,21.3 30.771134,17.1546392 C31.2134021,12.4123711 31.5958763,7.66494845 32.0412371,2.92268041 C27.2505155,2.92680412 22.4608247,2.91340206 17.671134,2.92886598 Z" id="Shape"></path>
                    </g>
                    <g id="#29a9dfff" transform="translate(17.525773, 2.886598)" fill="#29A9DF">
                        <path d="M0.145360825,0.0422680412 C4.93505155,0.0268041237 9.72474227,0.0402061856 14.5154639,0.0360824742 C14.0701031,4.77835052 13.6876289,9.5257732 13.2453608,14.2680412 C12.8680412,18.4134021 12.5051546,22.5597938 12.1453608,26.7061856 C12.0092784,28.0701031 11.928866,29.4402062 11.756701,30.8010309 C8.29690722,31.7505155 4.83917526,32.7082474 1.37731959,33.6484536 C0.970103093,33.7742268 0.555670103,33.8783505 0.134020619,33.9463918 C0.111340206,32.4484536 0.205154639,30.9453608 0.0835051546,29.4515464 C0.11443299,29.4453608 0.177319588,29.4329897 0.208247423,29.4268041 C3.42783505,28.6185567 6.6257732,27.728866 9.83814433,26.8917526 C10.2443299,22.3350515 10.6948454,17.7804124 10.9804124,13.214433 C8.24845361,13.228866 5.51546392,13.2206186 2.78350515,13.2319588 C2.38556701,13.2340206 1.98762887,13.2319588 1.59175258,13.2030928 C3.06185567,12.4463918 4.60824742,11.8463918 6.11752577,11.171134 C7.56597938,10.514433 9.03195876,9.89896907 10.485567,9.25463918 C10.7659794,9.1257732 11.0649485,9.0185567 11.3113402,8.82680412 C11.4082474,8.47113402 11.4030928,8.09896907 11.4412371,7.73505155 C11.5247423,6.58041237 11.6731959,5.43195876 11.728866,4.27628866 C7.85979381,4.24536082 3.99072165,4.27216495 0.120618557,4.25154639 C0.163917526,2.84948454 0.120618557,1.44536082 0.145360825,0.0422680412 Z" id="Path"></path>
                        <path d="M0.164948454,17.5484536 C2.03298969,17.5164948 3.90206186,17.5670103 5.77113402,17.5546392 C5.66701031,19.4649485 5.50824742,21.3721649 5.40927835,23.2824742 C4.26391753,23.656701 3.10103093,23.9731959 1.94639175,24.3195876 C1.33092784,24.5072165 0.698969072,24.6556701 0.113402062,24.9309278 C0.188659794,22.471134 0.0886597938,20.0082474 0.164948454,17.5484536 Z" id="Path"></path>
                    </g>
                    <g id="#cfcfcfff" transform="translate(5.463918, 7.113402)" fill="#CFCFCF">
                        <path d="M0.0948453608,0.0257731959 C4.12371134,0.0216494845 8.15360825,0.0103092784 12.1824742,0.024742268 C12.2350515,4.45773196 12.1690722,8.89072165 12.2268041,13.3216495 C10.6257732,13.356701 9.02371134,13.3247423 7.42268041,13.3329897 C5.42474227,13.3360825 3.42783505,13.3680412 1.42989691,13.3752577 C1.32371134,11.8824742 1.08247423,10.3948454 1.05463918,8.89896907 C1.30721649,8.71546392 1.60927835,8.62061856 1.89175258,8.49484536 C5.18556701,7.05463918 8.50515464,5.66907216 11.7845361,4.19793814 C8.03608247,4.08556701 4.28247423,4.22989691 0.534020619,4.09072165 C0.346391753,2.74020619 0.163917526,1.38762887 0.0948453608,0.0257731959 Z" id="Path"></path>
                        <path d="M1.72783505,15.9876289 C2.93917526,15.9690722 4.15051546,15.9804124 5.36082474,15.9731959 C5.61030928,15.9773196 5.86597938,15.9701031 6.10721649,16.0443299 C6.21237113,17.2257732 6.29484536,18.4103093 6.41340206,19.5907216 C7.24742268,19.8329897 8.11443299,19.928866 8.96082474,20.1134021 C10.0340206,20.3041237 11.0979381,20.5443299 12.1752577,20.7041237 C12.2783505,22.2010309 12.0979381,23.7082474 12.2701031,25.2 C12.2391753,25.2061856 12.1762887,25.2185567 12.1453608,25.2247423 C11.9195876,25.243299 11.7,25.1628866 11.4824742,25.1164948 C9.65360825,24.6278351 7.80515464,24.214433 5.97938144,23.7175258 C4.78762887,23.3927835 3.59175258,23.0876289 2.39793814,22.7762887 C2.05051546,20.5268041 1.84639175,18.2587629 1.72783505,15.9876289 Z" id="Path"></path>
                    </g>
                    <g id="#ffffffff" transform="translate(17.628866, 7.113402)" fill="#FFFFFF">
                        <path d="M0.0175257732,0.024742268 C3.88762887,0.0453608247 7.75670103,0.018556701 11.6257732,0.0494845361 C11.5701031,1.20515464 11.4216495,2.35360825 11.3381443,3.50824742 C11.3,3.87216495 11.3051546,4.2443299 11.2082474,4.6 C10.9618557,4.79175258 10.6628866,4.89896907 10.3824742,5.02783505 C8.92886598,5.67216495 7.4628866,6.28762887 6.01443299,6.9443299 C4.50515464,7.61958763 2.95876289,8.21958763 1.48865979,8.97628866 C1.88453608,9.00515464 2.28247423,9.00721649 2.68041237,9.00515464 C5.41237113,8.99381443 8.14536082,9.00206186 10.8773196,8.98762887 C10.5917526,13.5536082 10.1412371,18.1082474 9.73505155,22.6649485 C6.52268041,23.5020619 3.32474227,24.3917526 0.105154639,25.2 C-0.0670103093,23.7082474 0.113402062,22.2010309 0.0103092784,20.7041237 C0.595876289,20.428866 1.22783505,20.2804124 1.84329897,20.0927835 C2.99793814,19.7463918 4.16082474,19.4298969 5.30618557,19.0556701 C5.40515464,17.1453608 5.56391753,15.2381443 5.66804124,13.3278351 C3.79896907,13.3402062 1.92989691,13.2896907 0.0618556701,13.3216495 C0.00412371134,8.89072165 0.0701030928,4.45773196 0.0175257732,0.024742268 Z" id="Path"></path>
                    </g>
                </g>
                <rect id="Rectangle-Copy-8" x="0" y="0" width="40" height="40"></rect>
            </g>
        </g>
    </g>
</svg>
